!!!!SEGMENT: pl-wn--mus-iii-89-502--002_zelenski-wladyslaw--z-kantaty-jubileuszowej-do-slow-deotymy-polonez.krn
!!!cenid: 18xx:3760
!!!COM: Żeleński, Władysław
!!!COM-rismid: pe41024455
!!!CDT:
!!!CNT:
!!!GTL: Z kantaty jubileuszowej do słów Deotymy
!!!OTL: Polonez
!!!PDT:
!!!AGN:
!!!SMS-siglum: PL-Wn
!!!SMS-shelfmark: Mus.III.89.502
!!!SMS-shelfwork: 002 G
!!!SMS-variant:
!!!SMS-altvar:
!!!NIFC-rismid:
!!!URL-scan: https://polona.pl/item/z-kantaty-jubileuszowej-do-slow-deotymy,ODMzNDMxMTA/0/#info:metadata
!!!ONB-nifc: UWAGA: części: 1. Elegia, 2. Polonez, 3. Marsz jagielloński
!!!AIN: 2 piano
!!!key: B-
**kern	**kern	**dynam
*part2	*part1	*part1
*staff2	*staff1	*
*I"Piano.	*I"Piano.	*
*I'pf	*I'pf	*
*ICklav	*ICklav	*
*Ipiano	*Ipiano	*
*clefF4	*clefG2	*
*k[b-e-]	*k[b-e-]	*
*B-:	*B-:	*
*M3/4	*M3/4	*
!	!LO:TX:a:B:t=Tempo alla Polacca.	!
8r	16A/LL 16a	pp
.	16A/JJ 16a	.
=1	=1	=1
4r>	[<2.A/ [2.a	.
4r>	.	.
8r>	.	.
!	!LO:TX:a:i:t=m.g.	!
16d>\LL 16f#X>	.	.
16d>\JJ 16f#>	.	.
=2	=2	=2
8d>\L 8f#X>	4A/_< 4a_	pp
16d>\L	.	.
16d>\JJ	.	.
8f#>\L	8A/] 8a]	.
8d>\	8r	.
8f#>\	4r	.
8a>\J	.	.
=3	=3	=3
8dd>\	4r<	.
8r>	.	.
*tremolo	*	*
32AAA/LLL	4r	.
32AA/	.	.
32AAA/	.	.
32AA/	.	.
32AAA/	.	.
32AA/	.	.
32AAA/	.	.
32AA/	.	.
32AAA/	8r	.
32AA/	.	.
32AAA/	.	.
32AA/	.	.
*	*clefF4	*
32AAA/	(16G-X\LL	<
32AA/	.	.
32AAA/	16F\JJ	.
32AA/JJJ	.	.
=4	=4	=4
32AAA/LLL	8G-X\L)	.
32AA/	.	.
32AAA/	.	.
32AA/	.	.
32AAA/	(16G-\L	.
32AA/	.	.
32AAA/	16F\JJ	.
32AA/	.	.
32AAA/	8G-\L)	[
32AA/	.	.
32AAA/	.	.
32AA/	.	.
32AAA/	(16G-\L	>
32AA/	.	.
32AAA/	16F\JJ	.
32AA/	.	.
32AAA/	8G-\)	.
32AA/	.	.
32AAA/	.	.
32AA/	.	.
*	*clefG2	*
32AAA/	16A/LL 16a	] pp
32AA/	.	.
32AAA/	16A/JJ 16a	.
32AA/JJJ	.	.
!!LO:LB:g=original	!	!
=5	=5	=5
2.r	8A/ 8a	.
.	8r	.
.	4r	.
.	8r	.
.	16A/LL 16a	pp
.	16A/JJ 16a	.
=6	=6	=6
4r>	N[<2.A/ [>2.a	.
!	!LO:TX:a:i:t=m.g.	!
4r>	.	.
8r>	.	.
!	!LO:TX:t=P:problem= w źródle dwie 16, w Verovio błąd wyświetlania	!
16c>\LL 16e->	.	.
16c>\JJ 16e->	.	.
=7	=7	=7
8A>N] 8c>\ 8e->	8a/L]	.
!	!	!LO:DY:a
8r>	16f/L	pp
.	16f/JJ	.
4r>	8a/L	.
.	8f/	.
4r>	8a/	.
.	8cc/J	.
=8	=8	=8
4r	4ff\	.
32AAA/LLL	4r	.
32AA/	.	.
32AAA/	.	.
32AA/	.	.
32AAA/	.	.
32AA/	.	.
32AAA/	.	.
32AA/	.	.
32AAA/	8r	.
32AA/	.	.
32AAA/	.	.
32AA/	.	.
32AAA/	(<16G-X</LL	.
32AA/	.	.
32AAA/	16F</JJ	.
32AA/JJJ	.	.
=9	=9	=9
!	!LO:TX:b:i:t=poco a poco cresc.	!
32AAA\LLL	8G-X</L)	<
32AA\	.	.
32AAA\	.	.
32AA\	.	.
32AAA\	(<16G-</L	[
32AA\	.	.
32AAA\	16F</JJ	.
32AA\	.	.
32AAA\	8G-</L)	.
32AA\	.	.
32AAA\	.	.
32AA\	.	.
32AAA\	(<16G-</L	.
32AA\	.	.
32AAA\	16F</JJ	.
32AA\	.	.
32AAA\	8G-</L)	.
32AA\	.	.
32AAA\	.	.
32AA\	.	.
32AAA\	16c\L 16e-	.
32AA\	.	.
32AAA\	16c\JJ 16e-	.
32AA\JJJ	.	.
!!LO:LB:g=original	!	!
=10	=10	=10
*^	*	*
8r	32AAA\LLL	[2c/ [2e-	.
.	32AA\	.	.
.	32AAA\	.	.
.	32AA\	.	.
(<16G-X/LL	32AAA\	.	.
.	32AA\	.	.
16F/JJ	32AAA\	.	.
.	32AA\	.	.
8G-/L)	32AAA\	.	.
.	32AA\	.	.
.	32AAA\	.	.
.	32AA\	.	.
(<16G-/L	32AAA\	.	.
.	32AA\	.	.
16F/JJ	32AAA\	.	.
.	32AA\	.	.
[>4G-/)	32AAA\	8c/L] 8e-]	.
.	32AA\	.	.
.	32AAA\	.	.
.	32AA\	.	.
.	32AAA\	16c/L 16e-	.
.	32AA\	.	.
.	32AAA\	16c/JJ 16e-	.
.	32AA\JJJ	.	.
=11	=11	=11	=11
8G-/L]	32AAA\LLL	[2c/ [2e-	.
.	32AA\	.	.
.	32AAA\	.	.
.	32AA\	.	.
(<16G-X/L	32AAA\	.	.
.	32AA\	.	.
16F/JJ	32AAA\	.	.
.	32AA\	.	.
8G-/L)	32AAA\	.	.
.	32AA\	.	.
.	32AAA\	.	.
.	32AA\	.	.
(<16G-/L	32AAA\	.	.
.	32AA\	.	.
16F/JJ	32AAA\	.	.
.	32AA\	.	.
[4G-/)	32AAA\	8c/L] 8e-]	.
.	32AA\	.	.
.	32AAA\	.	.
.	32AA\	.	.
.	32AAA\	16c/L 16e-	.
.	32AA\	.	.
.	32AAA\	16c/JJ 16e-	.
.	32AA\JJJ	.	.
=12	=12	=12	=12
8G-/L]	8AAA\	4c/ 4e-	.
(<16G-X/L	8r	.	.
16F/JJ	.	.	.
8G-/L)	[2AA-X\	[2c/ [2e-	.
(<16G-/L	.	.	.
16F/JJ	.	.	.
8G-/L)	.	.	.
(<16G-/L	.	.	.
16F/JJ	.	.	.
=13	=13	=13	=13
8G-X/L)	4AA-\]	4c/] 4e-]	.
(<16G-/L	.	.	.
16F/JJ	.	.	.
8G-/L)	[2AAn\	[2c/ [2d	.
(<16G-/L	.	.	.
16F/JJ	.	.	.
8G-/L)	.	.	.
(<16G-/L	.	.	.
16F/JJ	.	.	.
=14	=14	=14	=14
8G-X/L)	4AA\]	4c/] 4d]	.
(<16G-/L	.	.	.
16F/JJ	.	.	.
8G-/L)	[2BBn\	[2B-/ [2d-X	.
(<16G-/L	.	.	.
16F/JJ	.	.	.
8G-/L)	.	.	.
(<16G-/L	.	.	.
16F/JJ	.	.	.
!!LO:LB:g=original	!	!	!
=15	=15	=15	=15
8G-X/L)	4BB\]	4B-/] 4d-]	.
(<16G-/L	.	.	.
16F/JJ	.	.	.
8G-/L)	(4EEn\	(>[4B-/ 4d-X	.
(<16G-/L	.	.	.
16F/JJ	.	.	.
8G-/L)	4EE-X\	4B-/] 4dn	.
(<16G-/L	.	.	.
16F/JJ	.	.	.
=16	=16	=16	=16
*	*Xtremolo	*	*
4F/)	8FF\L)	8B-/) 8d	.
.	8FF\	8r	.
4r	8FF\	16d/LL	p
.	.	16c/	.
.	8FF\	16B-/	.
.	.	16A/JJ	.
4r	8FF\	16B-/LL	.
.	.	16c/	.
.	8FF\J	16d/	.
.	.	16e-/JJ	.
*v	*v	*	*
=17	=17	=17
8FF/L	16g/LL	.
.	16f/	.
8FF/	16e-/	.
.	16d/JJ	.
8FF/	16c/LL	.
.	16B-/	.
8FF/	16c/	.
.	16d/JJ	.
8FF/	16e-/LL	.
.	16f/	.
8FF/J	16g/	.
.	16a/JJ	.
=18	=18	=18
8FF\L	16b-/LL	.
.	16a/	.
8F\J 8B- 8d	16g/	.
.	16f/JJ	.
8F\L 8B- 8d	16g/LL	.
.	16a/	.
8F\ 8B- 8d	16b-/	.
.	16cc/JJ	.
8F\ 8B- 8d	16dd\LL	.
.	16cc\	.
8F\J 8B- 8d	16dd\	.
.	16ee-\JJ	.
!!LO:LB:g=original	!	!
=19	=19	=19
8F\L 8B- 8d	16gg\LL	<
.	16ff\	.
8F\ 8B- 8d	16ee-\	.
.	16dd\JJ	.
8F\ 8B- 8d	16cc\LL	.
.	16b-\	.
8F\ 8B- 8d	16cc\	.
.	16dd\JJ	.
8F\ 8B- 8d	16ee-\LL	.
.	16ff\	.
8F\J 8B- 8d	16gg\	.
.	16aa\JJ	.
=20	=20	=20
8F\L 8B- 8e-	16bb-\LL	.
.	16aa\	.
8F\ 8B- 8e-	16gg\	.
.	16ff\JJ	.
8F\ 8A 8e-	16ee-\LL	.
.	16dd\	.
8E-\ 8e-	16ee-\	.
.	16ff\JJ	.
8D\ 8d	16gg\LL	.
.	16aa\	.
8C\J 8c	16bb-\	.
.	16ccc\JJ	[
=21	=21	=21
*^	*	*
4BBB-/ 4BB-	2ryy	8.dd\L 8.bb- 8.ddd	mf
!	!	!LO:TX:b:i:t=ben deciso.	!
.	.	16dd\Jk 16bb- 16ddd	.
8r	.	[4ff\ [4bb- ([4fff	.
8A-X\ 8B- 8f	.	.	.
8f/L	4G\ 4B-	16ff\LL] 16bb-] 16fff]	.
.	.	16ee-\ 16eee-	.
8e-/J	.	16dd\ 16ddd	.
.	.	16ee-\JJ 16eee-)	.
*v	*v	*	*
=22	=22	=22
8BBB-\L 8BB-	8.dd\L 8.bb- 8.ddd	.
16F\L 16B- 16d	.	.
16F\JJ 16B- 16d	16dd\Jk 16bb- 16ddd	.
8F\L 8B- 8d	[2dd\ [2bb- [2ddd	.
8F\ 8B- 8d	.	.
8F\ 8B- 8d	.	.
8F\J 8B- 8d	.	.
!!LO:LB:g=original	!	!
=23	=23	=23
4BBB-/ 4BB-	8dd\L] 8bb-] 8ddd]	.
.	8cc\J 8aa 8ccc	.
8r	8ee-\ 8ccc (8eee-	.
8BBB-/L 8BB-	4dd\ 4bb- 4ddd)	.
8CC/ 8C	.	.
8DD/J 8D	8f#X\ 8a 8ff#X	.
=24	=24	=24
*^	*	*
8EE-/L 8E-	4ryy	4a\ 4cc 4aa	.
(16EE-/L 16E-	.	.	.
16DD/JJ 16D	.	.	.
8EE-/) 8E-	8ryy	[4g\ [4b- [4gg	.
4G/	(>16E-\LL	.	.
.	16D\JJ	.	.
.	8E-\L)	8g\L] 8b-] 8gg]	.
[8G/	(>16E-\L	([8g\J [8b- [8gg	.
.	16D\JJ	.	.
=25	=25	=25	=25
8G/]	8E-\)	8g\L] 8b-] 8gg]	.
8r	8ryy	8gg\J) 8eee- 8ggg	.
4r	4ryy	4.gg\ 4.eee- 4.ggg	.
[4GGG^>/ [4GG	4ryy	.	.
.	.	8dd\ 8bbn 8ddd	.
*v	*v	*	*
=26	=26	=26
8GGG/L] 8GG]	4ff\ (4ddd 4fff	<
8BBBn/ 8BBn	.	.
8CC/ 8C	4.ee-\ 4.ccc) 4.eee-	.
8DD/ 8D	.	.
8EE-/ 8E-	.	.
8FF/J 8F	8dd\ 8bb-X 8ddd	[[
=27	=27	=27
8GG-X/L 8G-X	(8dd\L 8bb- 8ddd	.
16GG-/L 16G-	8cc\J 8aa 8ccc	.
(<16FF/JJ 16F	.	.
8GG-\L) 8G-	4.ee-\) 4.ccc 4.eee-	.
16G-\L 16B- 16e-	.	.
16G-\JJ 16B- 16e-	.	.
8G-\L 8B- 8e-	.	.
8G-\J 8B- 8e-	8b-\ 8bb-	.
!!LO:LB:g=original	!	!
=28	=28	=28
8F\L 8B- 8d	4dd\ 4bb- (4ddd	.
16F\L 16f	.	.
16F\JJ 16f	.	.
8F\L 8f	4cc\ 4aa 4ccc)	.
8F\J 8f	.	.
4F\ 4f	8r	.
*	*Xtuplet	*
.	(40ff\LLL	.
.	40gg\	.
.	40aa\	.
.	40bb-\	.
.	40ccc\JJJ	.
=29	=29	=29
8BBB-/L 8BB-	8.dd\L) 8.bb- 8.ddd	.
16F/L 16B- 16d	.	.
16F/JJ 16B- 16d	16dd\Jk 16bb- 16ddd	.
8A\L 8c 8f	([4ff\ [4ccc [4fff	.
8A\ 8c 8f	.	.
8G\ 8B- 8f	16ff\LL] 16ccc] 16fff]	.
.	16ee-\ 16eee-	.
8G\J 8B- 8e-	16dd\ 16ddd	.
.	16ee-\JJ) 16eee-	.
=30	=30	=30
8BBB-\L 8BB-	8.dd\L 8.bb- 8.ddd	.
16F\L 16B- 16d	.	.
16F\JJ 16B- 16d	16dd\Jk 16bb- 16ddd	.
8F\L 8B- 8d	4dd\ 4bb- 4ddd	.
8F\ 8B- 8d	.	.
8F#X\ 8B- 8d	([4dd\ [4bb- [4ddd	.
8F#\J 8B- 8d	.	.
=31	=31	=31
4G\ 4B- 4d	8dd\L] 8bb-] 8ddd]	.
.	8cc\J 8aa 8ccc	.
4r	8ee-\ 8ccc 8eee-	.
.	4dd\) 4bb- 4ddd	.
(4DD^>/ 4D	.	.
.	8f#X\ 8a 8ff#X	.
=32	=32	=32
8EE-/L) 8E-	(4a\ 4cc 4aa	.
(16EE-/L 16E-	.	.
16DD/JJ 16D	.	.
8EE-/L) 8E-	8g\L) 8b- 8gg	.
8E-/J 8G 8c	([8gg\J [8ggg	.
8BBBn/L 8BBn	16gg\LL] 16ggg]	.
.	16ff\ 16fff	.
8F/J 8A-X 8d	16ee-\ 16eee-	.
.	16dd\JJ 16ddd	.
!!LO:LB:g=original	!	!
=33	=33	=33
8CC/ 8C	8ff\L) 8fff	.
4E-\ 4G 4c	16ee-\L 16eee-	.
.	16dd\JJ 16ddd	.
.	8cc\ 8ccc	.
8DD/L 8D	4g\ 4gg	.
8CC/ 8C	.	.
8BBBn/J 8BBn	(16dd\LL 16ddd	.
.	16gg\JJ) 16ggg	.
=34	=34	=34
8CC/ 8C	8ff\L 8fff	.
4E-\ 4G 4c	8ee-\J 8eee-	.
.	4.aa\ 4.ccc 4.eee- 4.aaa	.
8CC/L 8C	.	.
8DD/ 8D	.	.
8EE-/J 8E-	8gg\ 8bb- 8eee- 8ggg	.
=35	=35	=35
8FF/ 8F	8ff\L 8bb- 8ddd 8fff	.
8r	[<8f\J	.
([4F\ 4B- [4e-	(16f/LL]	.
.	16g/	.
.	16a/	.
.	16b-/JJ	.
8F\L]) 8A 8e-]	16cc\LL	.
.	16dd\	.
8F\J 8A 8e-	16ee-\	.
.	16a\JJ)	.
=36	=36	=36
([4B-\ 4e-	4f/ 4a (4cc	.
8B-\]) 8d	8f\L 8b-)	.
16BBB-\LL	(>16BB-</L	.
16AAA\JJ	16AA</JJ	.
8BBB-\L	8BB-</L)	.
16CC\L	(16C</L	.
16DD\JJ	16D</JJ)	.
=37	=37	=37
*	*^	*
*tremolo	*	*	*
!	!LO:TX:a:B:t=Un poco più mosso.	!	!
32EE-\LLL	8ryy	8r	p
32BB-\	.	.	.
32EE-\	.	.	.
32BB-\	.	.	.
32EE-\	4B-/	(<16G-X</LL	.
32BB-\	.	.	.
32EE-\	.	16F</JJ	.
32BB-\	.	.	.
32EE-\	.	8G-</L)	.
32BB-\	.	.	.
32EE-\	.	.	.
32BB-\	.	.	.
32EE-\	4B-/	(<16G-</L	.
32BB-\	.	.	.
32EE-\	.	16F</JJ	.
32BB-\	.	.	.
!	!	!	!
32EE-\	.	8G-</L)	.
32BB-\	.	.	.
32EE-\	.	.	.
32BB-\	.	.	.
32EE-\	8ryy	16B-\L 16b-	.
32BB-\	.	.	.
32EE-\	.	16B-\JJ 16b-	.
32BB-\JJJ	.	.	.
*	*v	*v	*
!!LO:LB:g=original	!	!
=38	=38	=38
32EE-/LLL	8.B-\L 8.b-	.
32BB-/	.	.
32EE-/	.	.
32BB-/	.	.
32EE-/	.	.
32BB-/	.	.
32EE-/	16b-\Jk 16gg-X 16bb-	.
32BB-/	.	.
32EE-/	(4b-\ 4gg- 4bb-	p
32BB-/	.	.
32EE-/	.	.
32BB-/	.	.
32EE-/	.	.
32BB-/	.	.
32EE-/	.	.
32BB-/	.	.
32EE-/	4a-X\ 4ff 4aa-X	.
32BB-/	.	.
32EE-/	.	.
32BB-/	.	.
32EE-/	.	.
32BB-/	.	.
32EE-/	.	.
32BB-/JJJ	.	.
=39	=39	=39
*	*^	*
!	!	!	!
32EE-\LLL	8ryy	8g-X\L) 8ee- 8gg-X	.
32BB-\	.	.	.
32EE-\	.	.	.
32BB-\	.	.	.
32EE-\	4B-/	(<16G-X</L	.
32BB-\	.	.	.
32EE-\	.	16F</JJ	.
32BB-\	.	.	.
32EE-\	.	8G-</L)	.
32BB-\	.	.	.
32EE-\	.	.	.
32BB-\	.	.	.
32EE-\	4B-/	(<16G-</L	.
32BB-\	.	.	.
32EE-\	.	16F</JJ	.
32BB-\	.	.	.
!	!	!	!
32EE-\	.	8G-</L)	.
32BB-\	.	.	.
32EE-\	.	.	.
32BB-\	.	.	.
32EE-\	8ryy	16B-\L 16b-	.
32BB-\	.	.	.
32EE-\	.	16B-\JJ 16b-	.
32BB-\JJJ	.	.	.
*	*v	*v	*
=40	=40	=40
32EE-/LLL	8B-/ 8b-	.
32BB-/	.	.
32EE-/	.	.
32BB-/	.	.
32EE-/	(16b-\LL 16gg 16bb-	.
32BB-/	.	.
32EE-/	16a-X\JJ 16ff 16aa-X	<
32BB-/	.	.
32EE-/	8g-X\L) 8ee- 8gg-X	.
32BB-/	.	.
32EE-/	.	.
32BB-/	.	.
32EE-/	(8a-'\ 8ff 8aa-	.
32BB-/	.	.
32EE-/	.	.
32BB-/JJJ	.	.
32EE--/LLL	8b-'\ 8gg- 8bb-	.
32BB-/	.	.
32EE--/	.	.
32BB-/	.	.
32EE--/	8cc-X'\J) 8aa- 8ccc-X	[[
32BB-/	.	.
32EE--/	.	.
32BB-/JJJ	.	.
=41	=41	=41
*	*^	*
32EE-\LLL	8ryy	8dd-X\L 8bb- 8ddd-X	p
32BB-\	.	.	.
32EE-\	.	.	.
32BB-\	.	.	.
32EE-\	4d-X/	(<16B-</L	.
32BB-\	.	.	.
32EE-\	.	16A-X</JJ	.
32BB-\	.	.	.
32EE-\	.	8B-</L)	.
32BB-\	.	.	.
32EE-\	.	.	.
32BB-\	.	.	.
32EE-\	4d-/	(<16B-</L	.
32BB-\	.	.	.
32EE-\	.	16A-</JJ	.
32BB-\	.	.	.
32EE-\	.	8B-</L)	.
32BB-\	.	.	.
32EE-\	.	.	.
32BB-\	.	.	.
32EE-\	8ryy	16d-\L 16dd-	.
32BB-\	.	.	.
32EE-\	.	16d-\JJ 16dd-	.
32BB-\JJJ	.	.	.
*	*v	*v	*
=42	=42	=42
32DD-X/LLL	8.d-X\L 8.dd-X	.
32D-X/	.	.
32DD-/	.	.
32D-/	.	.
32DD-/	.	.
32D-/	.	.
32DD-/	16dd-\Jk 16bb- (16ddd-X	.
32D-/	.	.
32DD-/	4dd-\ 4bb- 4ddd-	.
32D-/	.	.
32DD-/	.	.
32D-/	.	.
32DD-/	.	.
32D-/	.	.
32DD-/	.	.
32D-/	.	.
32DD-/	4cc-X\ 4aa-X 4ccc-X	.
32D-/	.	.
32DD-/	.	.
32D-/	.	.
32DD-/	.	.
32D-/	.	.
32DD-/	.	.
32D-/JJJ	.	.
!!LO:LB:g=original	!	!
=43	=43	=43
*	*^	*
32DD-X\LLL	8ryy	8b-\L 8gg-X 8bb-)	.
32D-X\	.	.	.
32DD-\	.	.	.
32D-\	.	.	.
32DD-\	4d-X/	(<16B-</L	.
32D-\	.	.	.
32DD-\	.	16A-X</JJ	.
32D-\	.	.	.
32DD-\	.	8B-</L)	.
32D-\	.	.	.
32DD-\	.	.	.
32D-\	.	.	.
32DD-\	4d-/	(<16B-</L	.
32D-\	.	.	.
32DD-\	.	16A-</JJ	.
32D-\	.	.	.
32DD-\	.	8B-</L)	.
32D-\	.	.	.
32DD-\	.	.	.
32D-\	.	.	.
32DD-\	8ryy	16d-\L 16dd-X	.
32D-\	.	.	.
32DD-\	.	16d-\JJ 16dd-	.
32D-\JJJ	.	.	.
*	*v	*v	*
=44	=44	=44
32DD-X/LLL	8d-X\L 8dd-X	.
32D-X/	.	.
32DD-/	.	.
32D-/	.	.
32DD-/	(16dd-\L 16bb- 16ddd-X	.
32D-/	.	.
32DD-/	16cc-X\JJ 16aa-X 16ccc-X	.
32D-/	.	.
32DD-/	8b-\L) 8gg-X 8bb-	.
32D-/	.	.
32DD-/	.	.
32D-/	.	.
32DD-/	(8ccn'\ 8aa- 8cccn	.
32D-/	.	.
32DD-/	.	.
32D-/JJJ	.	.
32GG-X/LLL	8dd-'\ 8bb- 8ddd-	.
32D-/	.	.
32GG-/	.	.
32D-/	.	.
32GG-/	8ee-'\J) 8ccc 8eee-	.
32D-/	.	.
32GG-/	.	.
32D-/JJJ	.	.
=45	=45	=45
!	!	!LO:HP:t=cresc. molto e stringendo
8FF/ 8F	8.ff\L 8.ddd-X 8.fff	<
8r	.	.
.	16ff\Jk 16ddd- 16fff	.
(24BB-/LL	4.ff\ 4.ddd- 4.fff	.
24AA/	.	.
24BB-/	.	.
24C/	.	.
24D-X/	.	.
24E-/J	.	.
8F/J)	.	.
*Xtuplet	*	*
*clefG2	*	*
(<24f/LL	8ee-\ 8ccc 8eee-	.
24g/	.	.
24a/JJ	.	.
=46	=46	=46
8b-\)	8.dd-X\L 8.bb- 8.ddd-X	.
8r	.	.
.	16ff\Jk 16ddd- 16fff	.
*clefF4	*	*
(24BB-/LL	4.ff\ 4.ddd- 4.fff	.
24AA/	.	.
24BB-/	.	.
24C/	.	.
24D-X/	.	.
24E-/JJ	.	.
24F/LL	.	.
24E-/	.	.
24D-/	.	.
24C/	8ff\ 8ddd- 8fff	.
24BB-/	.	.
24AA-X/JJ	.	.
!!LO:LB:g=original	!	!
=47	=47	=47
8GG/)	8ff\L 8ddd-X 8fff	.
8r	8een\J 8dddn 8eeen	.
8r	4.gg\ 4.bb- 4.ggg	.
*clefG2	*	*
([8G/L [>8d-X 8en	.	.
8G/]) 8d-] 8f	.	.
*	*8va	*
8G/J 8d- 8f	8ffn\ 8ddd-X 8fffn	.
=48	=48	=48
4B-/ 4d-X 4g	8ff\L 8ddd-X 8fff	.
.	8een\J 8ddd- 8eeen	.
8r	4.aa\ 4.ccc 4.aaa	<
((8A/L [8e-X 8f#X	.	.
8B-/)) 8e-] 8g	.	.
8Bn/J 8e- 8g	8gg\ 8eee-X 8ggg	[
=49	=49	=49
4c/ 4e- 4a	8gg\L 8eee- 8ggg	.
.	8ff#X\J 8eee- 8fff#X	.
8r	4.bb-\ 4.ddd 4.bbb-	.
*clefF4	*	*
(8D\L 8d	.	.
8C#X\) 8c#X	.	.
8Cn\J 8cn	8aa\ 8fff#X 8aaa	.
=50	=50	=50
4BBn\ 4Bn	8aa\L 8fffn 8aaa	.
.	8gg\J 8fff 8ggg#X	.
8r	4.ccc\ 4.eeen 4.cccc	.
(8BB-X\L 8B-X	.	.
8AA\) 8A	.	.
8AA-X\J 8A-X	8bbn\ 8eee 8bbbn	.
=51	=51	=51
4GG/ 4G	8.ddd\L 8.fff 8.dddd	.
*	*X8va	*
.	16d\Jk 16f 16bn 16dd	.
4r	4d/ 4f 4b 4dd	.
16r	4d/ 4f#X 4cc 4dd	.
16B-\LL	.	.
16A\	.	.
16A-X\JJ	.	.
!!LO:LB:g=original	!	!
=52	=52	=52
4G\	8.d/L 8.g 8.bn 8.dd	.
.	16d/Jk 16g 16b 16dd	.
4r	4d/ 4g 4b 4dd	.
16r	4d/ 4f#X 4cc 4dd	.
16B-\LL	.	.
16A\	.	.
16A-X\JJ	.	.
=53	=53	=53
4G\	8.d/L 8.g 8.bn 8.dd	.
.	16d/Jk 16g 16b 16dd	.
4r	4d/ 4g 4b 4dd	.
!	!LO:TX:b:i:t=poco riten.	!
16r	4en/ 4b-X 4cc 4een	.
16A-X\LL	.	.
16G\	.	.
16G-X\JJ	.	.
=54	=54	=54
4F\	8.f\L 8.a 8.cc 8.ff	.
.	16f\Jk 16a 16cc 16ff	.
16r	4f\ 4a 4cc 4ff	.
16AA-X/LL 16A-X	.	.
16GG/ 16G	.	.
16GG-X/JJ 16G-X	.	.
16FF/LL 16F	4f\ 4a 4cc#X 4ff	.
16FF/ 16F	.	.
16EEn/ 16En	.	.
16EE-X/JJ 16E-X	.	.
=55	=55	=55
*Xtremolo	*	*
!	!LO:TX:a:i:t=a tempo	!
8DD/L 8D	8.f#X\L 8.a 8.dd 8.ff#X	.
8DD/J 8D	.	.
.	16f#\Jk 16a 16dd 16ff#	.
8DD/L 8D	[4a\ [4dd [4aa	ff
8CC/ 8C	.	.
8BBBn/ 8BBn	16a\LL] 16dd] 16aa]	.
.	16g\ 16gg	.
8BBB/J 8BB	16f#X\ 16ff#X	.
.	16g\JJ 16gg	.
!!LO:LB:g=original	!	!
=56	=56	=56
*	*^	*
8BBB-X/L 8BB-X	8.f#X\L 8.dd 8.ff#X	2ryy	.
8BBB-/ 8BB-	.	.	.
.	16f#\Jk 16dd 16ff#	.	.
8AAA/ 8AA	[4f#\ 4dd [4ff#	.	.
8AAA/J 8AA	.	.	.
8GG/L 8G	16f#/LL] 16ff#]	4b-\	.
.	16en/ 16een	.	.
8GG/J 8G	16d/ 16dd	.	.
.	16e/JJ 16ee	.	.
=57	=57	=57	=57
4.FF#X/ 4.F#X	8.d/L 8.dd	[4b-\	.
.	16d/Jk 16dd	.	.
.	[4d/ 4b-_ [4dd	2ryy	.
8EEn/ 8En	.	.	.
8DD/L 8D	16d/LL] 16b-] 16dd]	.	.
.	16c/ 16cc	.	.
8EE/J 8E	16B-/ 16b-	.	.
.	16c/JJ 16cc	.	.
=58	=58	=58	=58
8FF#X/L 8F#X	8.d/L 8.dd	[4b-\	.
8FF#/ 8F#	.	.	.
.	16d/Jk 16dd	.	.
8FF#/ 8F#	8.dd/L	8d\ 8b-]	.
8FF#/J 8F#	.	8r	.
.	(16dd/Jk	.	.
8GG/L 8G	16ff/LL	4b-\	>
.	16ee-/	.	.
((8GG/J 8G	16dd/	.	.
.	16ee-/JJ	.	.
=59	=59	=59	=59
4FF#X/)) 4F#X	8.d/L) 8.dd	[4a\	]
.	16d/Jk 16dd	.	.
8r	4dd/	4d\ 4a]	.
(8D\L 8F#	.	.	.
!	!LO:TX:b:i:t=dolce	!	!
8En\) 8G	(16dd/LL	4r	pp
.	16cc/	.	.
(8E\J 8G	16b-/	.	.
.	16cc/JJ	.	.
*	*v	*v	*
!!LO:LB:g=original	!	!
=60	=60	=60
4F#X\) 4A	8.dd\L)	.
.	16dd\Jk	.
8ryy	(4dd\	.
(8F#\L 8A	.	.
8G\) 8B-	16ff\LL	.
.	16ee-\	.
(8G\J 8B-	16dd\	.
.	16ee-\JJ	.
=61	=61	=61
8F#X\) 8A	8.dd\L)	.
8r	.	.
.	16dd\Jk	.
*clefG2	*	*
(16f#X/LL	(4.ddd\	.
16a/	.	.
16d/	.	.
16a/JJ	.	.
16f#/LL	.	.
16a/	.	.
16d/	8ccc\)	.
16a/JJ)	.	.
=62	=62	=62
(16g/LL	(16ccc\LL	.
16b-/	16bb-\	.
16d/	16aa\	.
16b-/JJ	16bb-\JJ	.
16g/LL	8gg\L)	.
16b-/	.	.
16d/	(16gg\L	.
16b-/JJ	16aa\JJ	.
16g/LL	8bb-\L)	.
16b-/	.	.
16d/	(16aa\L	.
16b-/JJ)	16gg\JJ	.
=63	=63	=63
(16g/LL	8ff\L	.
16b-/	.	.
16d-X/	8ff-X\J	.
16b-/JJ	.	.
16g/LL	4.ee-\)	.
16b-/	.	.
16d-/	.	.
16b-/JJ	.	.
16g/LL	.	.
16b-/	.	.
16d-/	(8gg\	.
16b-/JJ)	.	.
!!LO:LB:g=original	!	!
=64	=64	=64
(16e-/LL	8bb-\L	.
16a-X/	.	.
16c-X/	8gg\J	.
16a-/JJ	.	.
16e-/LL	[4aa-X\	.
16a-/	.	.
16c-/	.	.
16a-/JJ	.	.
16e-/LL	16aa-\LL]	.
16a-/	16gg\	.
16c-/	16ff\	.
16a-/JJ)	16ee-\JJ)	.
=65	=65	=65
(16e-/LL	(8ee-\L	.
16g/	.	.
16B-/	8dd\J	.
16g/JJ	.	.
16e-/LL	4.dd-X\)	.
16g/	.	.
16B-/	.	.
16g/JJ	.	.
16e-/LL	.	.
16g/	.	.
16B-/	(8gg\	.
16g/JJ)	.	.
=66	=66	=66
(16e-/LL	8aa\	.
16g/	.	.
16A/	4gg\)	.
16g/JJ	.	.
16e-/LL	.	.
16g/	.	.
16A/	(16ff#X\LL	.
16g/JJ	16aa\JJ	.
16e-/LL	8gg\L)	.
16g/	.	.
16A/	(16ffn\L	.
16g/JJ)	16ee-\JJ	.
!!LO:LB:g=original	!	!
=67	=67	=67
(16d/LL	[2dd\)	.
16g/	.	.
16B-/	.	.
16g/JJ	.	.
16d/LL	.	.
16g/	.	.
16B-/	.	.
16g/JJ	.	.
16e-/LL	16dd\LL]	.
16g/	(16cc\	.
16A/	16ff\	.
16g/JJ)	16ee-\JJ	.
=68	=68	=68
16F/LL	8dd\)	.
16g/	.	.
16B-/ 16d	4dd\	.
16g/JJ	.	.
16F/LL	.	.
16g/	.	.
16B-/ 16d	[8dd\	.
16g/JJ	.	.
16D/LL	16dd\LL]	.
16f#X/	16cc\	.
16c/ 16d	16a\	.
16f#/JJ	16b-\JJ	.
*clefF4	*	*
=69	=69	=69
8.G\L 8.B- 8.d	8.g/L	.
16G\Jk 16B- 16d	16g/Jk	.
8G\L 8B- 8d	[4g/	.
8G\ 8B- 8d	.	.
8G\ 8B- 8d	16g/LL]	.
.	16a/	.
8G\J 8B- 8d	16b-/	.
.	16cc/JJ	.
!!LO:LB:g=original	!	!
=70	=70	=70
8F#X\L 8A 8d	8.dd\L	.
8F#\ 8A 8d	.	.
.	16dd\Jk	.
8F#\ 8A 8d	(4dd\	.
8F#\J 8A 8d	.	.
8G\L 8A 8c 8e-	16ff\LL	>
.	16ee-\	.
8G\J 8A 8c 8e-	16dd\	.
.	16ee-\JJ	]
=71	=71	=71
8F#X\L 8A 8d	8.dd\L)	.
8F#\ 8A 8d	.	.
.	(16cc\Jk	.
8G\ 8B- 8d	16b-/LL	.
.	16a/	.
8G\ 8B- 8d	16g/	.
.	16a/JJ	.
8G\ 8B- 8d	16b-\LL	.
.	16a\	.
8G\J 8B- 8d	16b-\	.
.	16cc\JJ	.
=72	=72	=72
8A-X\L 8B- 8d	8.dd\L)	.
8A-\ 8B- 8d	.	.
.	16dd\Jk	.
8G\ 8B- 8d	(4dd\	.
8G\ 8B- 8d	.	.
8G-X\ 8B- 8d	16ff\LL	>
.	16ee-\	.
8G-\J 8B- 8d	16dd\	.
.	16ee-\JJ	]
=73	=73	=73
8F\L 8B- 8d	8dd\)	.
8FF\J 8F	8r	.
!	!	!LO:HP:t=cresc. poco
8FF/L 8F	16d/LL	<
.	16c/	.
8FF/ 8F	16B-/	.
.	16A/JJ	.
8FF/ 8F	16B-/LL	.
.	16c/	.
8FF/J 8F	16d/	.
.	16e-/JJ	.
!!LO:LB:g=original	!	!
=74	=74	=74
!	!LO:TX:b:i:t=a poco	!
8FF/L 8F	16g/LL	.
.	16f/	.
8FF/ 8F	16e-/	.
.	16d/JJ	.
8FF/ 8F	16c/LL	.
.	16B-/	.
8FF/ 8F	16c/	.
.	16d/JJ	.
8FF/ 8F	16e-/LL	.
.	16f/	.
8FF/J 8F	16g/	.
.	16a/JJ	.
=75	=75	=75
8F\L 8B- 8d	16b-/LL	.
.	16a/	.
8F\ 8B- 8d	16g/	.
.	16f/JJ	.
8F\ 8B- 8d	16g/LL	.
.	16a/	.
8F\ 8B- 8d	16b-/	.
.	16cc/JJ	.
8F\ 8B- 8d	16dd\LL	.
.	16cc\	.
8F\J 8B- 8d	16dd\	.
.	16ee-\JJ	.
=76	=76	=76
8F\L 8B- 8e-	16gg\LL	.
.	16ff\	.
8F\ 8B- 8e-	16ee-\	.
.	16dd\JJ	.
8F\ 8B- 8e-	16cc\LL	.
.	16b-\	.
8F\ 8B- 8e-	16cc\	.
.	16dd\JJ	.
8F\ 8B- 8e-	16ee-\LL	.
.	16ff\	.
8F\J 8B- 8e-	16gg\	.
.	16aa\JJ	.
=77	=77	=77
*^	*	*
4BBB-/ 4BB-	2ryy	8.dd\L 8.bb- 8.ddd	f
.	.	16dd\Jk 16bb- 16ddd	.
8r	.	[4ff\ [4bb- [4fff	.
8A-X'\ 8B- 8f	.	.	.
(8f/L	4G\ 4B-	16ff\LL] 16bb-] 16fff]	.
.	.	16ee-\ 16eee-	.
8e-/J)	.	16dd\ 16ddd	.
.	.	16ee-\JJ 16eee-	.
*v	*v	*	*
!!LO:LB:g=original	!	!
=78	=78	=78
8BBB-\L 8BB-	8.dd\L 8.bb- 8.ddd	.
16F\L 16B- 16d	.	.
16F\JJ 16B- 16d	16dd\Jk 16bb- 16ddd	.
8F\L 8B- 8d	[2dd\ [2bb- [2ddd	.
8F\ 8B- 8d	.	.
8F\ 8B- 8d	.	.
8F\J 8B- 8d	.	.
=79	=79	=79
4BBB-/ 4BB-	8dd\L] 8bb-] 8ddd]	.
.	8cc\J 8aa 8ccc	.
8r	(8ee-\ 8ccc 8eee-	.
8BBB-'/L 8BB-	4dd\) 4bb- 4ddd	.
8CC'/ 8C	.	.
8DD'/J 8D	8f#X\ 8a 8ff#X	.
=80	=80	=80
*^	*	*
8EE-/L 8E-	4ryy	4a\ 4cc 4aa	.
(16EE-/L 16E-	.	.	.
16DD/JJ 16D	.	.	.
8EE-/) 8E-	8ryy	[4g\ [4b- [4gg	.
4G/	(16E-\LL	.	.
.	16D\JJ	.	.
.	8E-\L)	8g\L] 8b-] 8gg]	.
[8G/	(16E-\L	([8g\J [8b- [8gg	.
.	16D\JJ	.	.
=81	=81	=81	=81
8G/]	8E-\)	8g\L] 8b-] 8gg]	.
8r	8ryy	8gg\J) 8eee- 8ggg	.
4r	4ryy	4.gg\ 4.eee- 4.ggg	.
[4GGG^>/ [4GG	4ryy	.	.
.	.	8dd\ 8bbn 8ddd	.
*v	*v	*	*
!!LO:LB:g=original	!	!
=82	=82	=82
8GGG/L] 8GG]	4ff\ 4ddd 4fff	.
8BBBn/ 8BBn	.	.
8CC/ 8C	(4.ee-\ 4.ccc 4.eee-	.
8DD/ 8D	.	.
8EE-/ 8E-	.	.
8FF/J 8F	8dd\ 8bb-X 8ddd	.
=83	=83	=83
*^	*	*
4GG-X/ 4G-X	4.ryy	8dd\L 8bb- 8ddd	.
.	.	8cc\J) 8aa 8ccc	.
8r	.	4.ee-\ 4.ccc 4.eee-	.
4c/ 4e-	(>8F#X\L	.	.
.	8G-\)	.	.
8c/ 8e-	8A-X\J	8ee-\ 8ccc 8eee-	.
=84	=84	=84	=84
!	!	!	!LO:HP:t=cresc. e stringendo
4G\ 4Bn 4f	4.ryy	(8ee-\L 8bbn 8eee-	<
.	.	8dd\J) 8ddd	.
8r	.	4.ff\ 4.ddd [4.fff	.
4d/ 4f	(8G#X\L	.	.
.	8A\)	.	.
8d/ 8f	8B-X\J	8ff\ 8ddd 8fff]	.
=85	=85	=85	=85
*	*	*^	*
4A\ 4c#X 4g	4.ryy	4ccc#X/	8ff\L 8fff	.
.	.	.	8een\J 8eeen	.
*	*	*v	*v	*
*	*	*8va	*
*	*	*^	*
8r	.	(4.gg\ 4.ccc# 4.ggg	2ryy	.
4c#/ 4g	(8A\L	.	.	.
.	8B-\)	.	.	.
8c#/ 8g	8A\J	8ff\) 8ccc# 8fff	.	.
*v	*v	*	*	*
*	*v	*v	*
=86	=86	=86
4B-\ 4c#X 4g	(8ff\L [<8ccc#X 8fff	.
.	8een\J 8ccc#] 8eee-	.
8r	4.gg\ 4.ccc# 4.ggg	.
(<8A\L 8c# 8g	.	.
8B-\)	.	.
8A\J 8c# 8g	8ff\) 8ccc# 8fff	.
!!LO:LB:g=original	!	!
=87	=87	=87
4B-\ 4c#X 4g	8ff\L [<8ccc#X 8fff	.
*	*tremolo	*
.	8een\J 8ccc#] 8eeen	.
8r	32ccc#\LLL 32eee 32ggg	.
.	32gg\	.
.	32ccc#\ 32eee 32ggg	.
.	32gg\	.
*clefG2	*	*
16B-/LL 16b-	32ccc#\ 32eee 32ggg	.
.	32gg\	.
16B-/JJ 16b-	32ccc#\ 32eee 32ggg	.
.	32gg\	.
8d-X/L 8dd-X	32ccc#\ 32eee 32ggg	.
.	32gg\	.
.	32ccc#\ 32eee 32ggg	.
.	32gg\	.
8B-/J 8b-	32ccc#\ 32eee 32ggg	.
.	32gg\	.
.	32ccc#\ 32eee 32ggg	.
.	32gg\JJJ	.
=88	=88	=88
8d-X/L 8dd-X	32ccc#X\LLL 32eeen 32ggg	.
.	32gg\	.
.	32ccc#\ 32eee 32ggg	.
.	32gg\	.
!	!LO:TX:b:i:t=riten.	!
8B-/ 8b-	32ccc#\ 32eee 32ggg	.
.	32gg\	.
.	32ccc#\ 32eee 32ggg	.
.	32gg\	.
8d-/ 8dd-	32ccc#\ 32eee 32ggg	.
.	32gg\	.
.	32ccc#\ 32eee 32ggg	.
.	32gg\	.
8B-/ 8b-	32ccc#\ 32eee 32ggg	.
.	32gg\	.
.	32ccc#\ 32eee 32ggg	.
.	32gg\	.
8d-/ 8dd-	32ccc#\ 32eee 32ggg	.
.	32gg\	.
.	32ccc#\ 32eee 32ggg	.
.	32gg\	.
8B-/J 8b-	32ccc#\ 32eee 32ggg	.
.	32gg\	.
.	32ccc#\ 32eee 32ggg	.
.	32gg\JJJ	.
=89	=89	=89
8d-X/ 8dd-X	8gg\ 8ccc#X 8eeen 8ggg	.
*	*X8va	*
!	!LO:TX:a:i:t=a tempo	!
(16b-\LL	8r	pp
16dd-\JJ	.	.
16b-\LL	4r	.
16dd-\	.	.
16b-\	.	.
16dd-\JJ	.	.
16b-\LL	4r	.
16dd-\	.	.
16b-\	.	.
16dd-\JJ	.	.
=90	=90	=90
*^	*	*
16b-/LL	4r	2.r	.
16dd-X/	.	.	.
16b-/	.	.	.
16dd-/JJ	.	.	.
16b-/LL	8g-X\L	.	.
16dd-/	.	.	.
16b-/	8d-X\	.	.
16dd-/JJ	.	.	.
16b-/LL	8g-\	.	.
16dd-/	.	.	.
16b-/	8d-\J	.	.
16dd-/JJ)	.	.	.
!!LO:LB:g=original	!	!	!
=91	=91	=91	=91
!	!	!LO:TX:b:i:t=molto tranquillo	!
(16b-/LL	8g-X\L	8.bb-\L	.
16dd-X/	.	.	.
16b-/	8d-X\	.	.
16dd-/JJ	.	16bb-\Jk	.
16b-/LL	8g-\	4.bb-\	.
16dd-/	.	.	.
16b-/	8d-\	.	.
16dd-/JJ	.	.	.
16b-/LL	8g-\	.	.
16dd-/	.	.	.
16b-/	8d-\J	(16aa-X\LL	.
16dd-/JJ	.	16bb-\JJ	.
=92	=92	=92	=92
16cc-X/LL	8f\L	8ddd-X\L	.
16dd-X/	.	.	.
16cc-/	8d-X\	8cccn\J	.
16dd-/JJ	.	.	.
16cc-/LL	8f\	4.ccc-X\)	.
16dd-/	.	.	.
16cc-/	8d-\	.	.
16dd-/JJ	.	.	.
16cc-/LL	8f\	.	.
16dd-/	.	.	.
16cc-/	8d-\J	8bb-\	.
16dd-/JJ)	.	.	.
=93	=93	=93	=93
.	.	(<8qbb-/	.
(16cc-X/LL	8f\L	8aa-X\)	.
16dd-X/	.	.	.
16cc-/	8d-X\	4aa-~\	.
16dd-/JJ	.	.	.
16cc-/LL	8f\	.	.
16dd-/	.	.	.
16cc-/	8d-\	4aa-~\	.
16dd-/JJ	.	.	.
16cc-/LL	8f\	.	.
16dd-/	.	.	.
16cc-/	8d-\J	(16bb-\LL	.
16dd-/JJ	.	16ccc-X\JJ	.
!!LO:LB:g=original	!	!	!
=94	=94	=94	=94
16cc-X/LL	8f\L	8.ddd-X\L	.
16dd-X/	.	.	.
16cc-/	8d-X\	.	.
16dd-/JJ	.	16eee-\Jk	.
16cc-/LL	8e-\	8ddd-\L)	.
16dd-/	.	.	.
16cc-/	8d-\	8ccc-X'\	.
16dd-/JJ	.	.	.
16cc-/LL	8f\	8bb-'\	.
16dd-/	.	.	.
16cc-/	8d-\J	8aa-X'\J	.
16dd-/JJ)	.	.	.
=95	=95	=95	=95
(16b-/LL	8g-X\L	8gg-X\	.
16dd-X/	.	.	.
16b-/	8d-X\	4bb-~\	.
16dd-/JJ	.	.	.
16b-/LL	8g-\	.	.
16dd-/	.	.	.
16b-/	8d-\	4bb-~\	.
16dd-/JJ	.	.	.
16b-/LL	8g-\	.	.
16dd-/	.	.	.
16b-/	8d-\J	(16aa-X\LL	.
16dd-/JJ	.	16bb-\JJ	.
=96	=96	=96	=96
16cc-X/LL	8e-\L	16ccc-X\LL	.
16dd-X/	.	16bb-\	.
16cc-/	8d-X\	16ccc-\	.
16dd-/JJ	.	16ddd-X\JJ	.
16cc-/LL	8e-\	8ccc-\)	.
16dd-/	.	.	.
16cc-/	8d-\	(4ccc-\	.
16dd-/JJ	.	.	.
16cc-/LL	8e-\	.	.
16dd-/	.	.	.
16cc-/	8d-\J	8bb-\)	.
16dd-/JJ)	.	.	.
!!LO:LB:g=original	!	!	!
=97	=97	=97	=97
.	.	(<8qbb-/	.
(16cc-X/LL	8e-\L	8aa-X\)	.
16dd-X/	.	.	.
16cc-/	8d-X\	4aa-\	.
16dd-/JJ	.	.	.
16cc-/LL	8f-X\	.	.
16dd-/	.	.	.
16cc-/	8d-\	(16aa-\LL	.
16dd-/JJ	.	16bb-\JJ	.
16cc-/LL	8fn\	16ccc-X\LL	.
16dd-/	.	16bb-\	.
16cc-/	8d-\J	16ccc-\	.
16dd-/JJ	.	16ddd-X\JJ	.
=98	=98	=98	=98
16b-/LL	8g-X\L	8gg-X\L)	.
16dd-X/	.	.	.
16b-/	8d-X\	(16gg-\L	.
16dd-/JJ	.	16bb-\JJ	.
8cc-X/)	8f\J	[4aa-X\	.
*clefF4	*	*	*
(16c-X\LL	4.ryy	.	.
16d-X\JJ	.	.	.
16c-\LL	.	8.aa-\L]	.
16d-\	.	.	.
16c-\	.	.	.
16d-\JJ	.	16gg-X\Jk	.
=99	=99	=99	=99
*	*	*^	*
16B-/LL	4r	8.gg-X\L)	4ryy	.
16d-X/	.	.	.	.
16B-/	.	.	.	.
16d-/JJ	.	16g-X\Jk 16b-	.	.
16B-/LL	8G-X\L	4.b-/	4g-\	.
16d-/	.	.	.	.
16B-/	8D-X\	.	.	.
16d-/JJ	.	.	.	.
16B-/LL	8G-\	.	[4g-\	.
16d-/	.	.	.	.
16B-/	8D-\J	(16a-X/LL	.	.
16d-/JJ)	.	16b-/JJ	.	.
!!LO:LB:g=original	!	!	!	!
=100	=100	=100	=100	=100
(16c-X/LL	8A-X\L	8dd-X/L	2g-\]	.
16d-X/	.	.	.	.
16c-/	8D-X\	8cc/J	.	.
16d-/JJ	.	.	.	.
16c-/LL	8A-\	4.cc-X/)	.	.
16d-/	.	.	.	.
16c-/	8D-\	.	.	.
16d-/JJ	.	.	.	.
16c-/LL	8A-\	.	[4f\	.
16d-/	.	.	.	.
16c-/	8D-\J	8b-/	.	.
16d-/JJ)	.	.	.	.
=101	=101	=101	=101	=101
.	.	(<8qb-/	.	.
(16c-X/LL	8A-X\L	8a-X/)	4f\]	.
16d-X/	.	.	.	.
16c-/	8D-X\	4a-/	.	.
16d-/JJ	.	.	.	.
16c-/LL	8A-\	.	[2f-X\	.
16d-/	.	.	.	.
16c-/	8D-\	4a-/	.	.
16d-/JJ	.	.	.	.
16c-/LL	8A-\	.	.	.
16d-/	.	.	.	.
16c-/	8D-\J	(16b-/LL	.	.
16d-/JJ	.	16cc-X/JJ	.	.
=102	=102	=102	=102	=102
16c-X/LL	8A-X\L	8.dd-X/L	4f-\]	.
16d-X/	.	.	.	.
16c-/	8D-X\	.	.	.
16d-/JJ	.	16ee-/Jk	.	.
16c-/LL	8A-\	8dd-/L)	(4e-\	.
16d-/	.	.	.	.
16c-/	8D-\	(8cc-X'/	.	.
16d-/JJ	.	.	.	.
16c-/LL	8A-\	8b-'/	4fn\	.
16d-/	.	.	.	.
16c-/	8D-\J	8a-X'/J)	.	.
16d-/JJ)	.	.	.	.
*v	*v	*	*	*
*	*v	*v	*
!!LO:LB:g=original	!	!
=103	=103	=103
!	!LO:TX:b:i:t=poco a poco	!
8G-X\L 8B-	8.g-X/L) 8.b-	.
8GG-X\J 8D-X	.	.
.	16B-/Jk	.
8GG-/L 8D-	4.B-/	.
8GG-/ 8D-	.	.
8GG-/ 8D-	.	<
8GG-/J 8D-	(>16A-X/LL	.
.	16B-/JJ	.
=104	=104	=104
8FF/L 8D-X	8d-X/L	.
8FF/ 8D-	8c/J	.
8FF/ 8D-	4.c-X/	.
8FF/ 8D-	.	.
8FF/ 8D-	.	.
8FF/J 8D-	8B-/)	.
=105	=105	=105
8FF-X/L 8C-X	8.A-X/L	.
8FF-/ 8C-	.	.
.	16A-/Jk	.
8FF-/ 8C-	8A-/L	.
8FF-/ 8C-	(>16A-/L	.
.	16G/JJ	.
8FF-/ 8F-X	16A-/LL	.
.	16B-/	.
8FF-/J 8F-	16c-X/	.
.	16d-X/JJ	.
=106	=106	=106
8GGn/L 8E-X	8.e-/L)	.
8GG/ 8E-	.	.
.	(16dn/Jk	.
8GG/ 8E-	4.d-X/)	.
8GG/ 8E-	.	.
8GG/ 8E-	.	.
8GG/J 8E-	(16c-X/LL	.
.	16B-/JJ	.
!!LO:LB:g=original	!	!
=107	=107	=107
*	*^	*
8AA-X/L 8E-	8.c-X/L)	2ryy	.
8AA-/ 8E-	.	.	.
.	(16B-/Jk	.	.
8AA-/ 8E-	8c-/L)	.	<
8AA-/J 8E-	(>16B-/L	.	.
.	16A-X/JJ	.	.
8GG-X/L 8G-X	16B-/LL	8ryy	.
.	16cn/	.	.
8GG-/J 8G-	16d-X/	8B-\	.
.	16e-/JJ	.	[
=108	=108	=108	=108
8FF/ 8F	8.f/L)	8An\	.
8r	.	8r	.
!	!LO:TX:b:i:t=m.g.	!	!
.	16en/Jk	.	.
!	!	!	!LO:DY:a
4.e-X>\	8r	4ryy	f
*	*Xtremolo	*	*
.	16f/LL 16ff	.	.
.	16f/JJ 16ff	.	.
.	4f/ 4ff	4ryy	.
(>16d-X>\LL	.	.	.
16c>\JJ	.	.	.
=109	=109	=109	=109
8.B-\L) 8.d-X 8.f	8.g\L 8.dd-X 8.ff 8.gg	2ryy	.
16B-\Jk 16d- 16f	16g\Jk 16dd- 16ff 16gg	.	.
*^	*	*	*
8d-/ 8f	8B-\L	4.g\ 4.dd- 4.ff 4.gg	.	<
4d-/ 4f	(>16B-\L	.	.	.
.	16An\JJ	.	.	.
.	8B-\L)	.	8ryy	.
8d-/ 8f	16A\L	16a\LL 16aa	8dd-/ 8ff	.
.	16G\JJ	16b-\JJ 16bb-	.	[
*v	*v	*	*	*
*	*v	*v	*
=110	=110	=110
8.A\L 8.c#X 8.f	8.a\L 8.cc#X 8.ff 8.aa	ff
16A\Jk 16c# 16f	16a\Jk 16cc# 16ff 16aa	.
4A\ 4c# 4f	4a\ 4cc# 4ff 4aa	.
4GG/ 4G	4a\ 4cc# 4een 4aa	.
!!LO:LB:g=original	!	!
=111	=111	=111
8FF\L 8F	8a\ 8ccn 8ee-X 8aa	.
8F\J 8c 8e-X	8r	.
8F\L 8c 8e-	16a/LL	p
.	16g/	.
8F\ 8c 8e-	16f/	.
.	16g/JJ	.
8F\ 8c 8e-	16a\LL	.
.	16b-\	.
8F\J 8c 8e-	16cc\	.
.	16dd\JJ	.
=112	=112	=112
8F\L 8c 8e-	16ee-\LL	<
.	16dd\	.
8F\ 8c 8e-	16cc\	.
.	16dd\JJ	.
8F\ 8c 8e-	16ee-\LL	.
.	16dd\	.
8F\ 8c 8e-	16ee-\	.
.	16ff\JJ	.
8F\ 8c 8e-	16gg\LL	.
.	16aa\	.
8F\J 8c 8e-	16bb-\	.
.	16ccc\JJ	[
=113	=113	=113
*^	*	*
4BBB-/ 4BB-	4.ryy	8.dd\L 8.bb- 8.ddd	f
.	.	16dd\Jk 16bb- 16ddd	.
8r	.	[4ff\ [4bb- [4fff	.
8f'/	8A-X\ 8B-	.	.
8f/L	4G\ 4B-	16ff\LL] 16bb-] 16fff]	.
.	.	16ee-\ 16eee-	.
8e-/J	.	16dd\ 16ddd	.
.	.	16ee-\JJ 16eee-	.
*v	*v	*	*
!!LO:LB:g=original	!	!
=114	=114	=114
8BBB-\L 8BB-	8.dd\L 8.bb- 8.ddd	.
16F\L 16B- 16d	.	.
16F\JJ 16B- 16d	16dd\Jk 16bb- 16ddd	.
8F\L 8B- 8d	[2dd\ [2bb- [2ddd	.
8F\ 8B- 8d	.	.
8F\ 8B- 8d	.	.
8F\J 8B- 8d	.	.
=115	=115	=115
4BBB-/ 4BB-	8dd\L] 8bb-] 8ddd]	.
.	8cc\J 8aa 8ccc	.
8r	(8ee-\ 8ccc 8eee-	.
8BBB-/L 8BB-	4dd\) 4bb- 4ddd	.
8CC/ 8C	.	.
8DD/J 8D	8f#X\ 8a 8ff#X	.
=116	=116	=116
*^	*	*
8EE-/L 8E-	4ryy	(4a\ 4cc 4aa	.
(16EE-/L 16E-	.	.	.
16DD/JJ 16D	.	.	.
8EE-/) 8E-	8ryy	[4g\) [4b- [4gg	.
4G/	(<16E-\LL	.	.
.	16D\JJ	.	.
.	8E-\L)	8g\L] 8b-] 8gg]	<
[8G/	N[>16E-\L	([8g\J [8b- [8gg	.
.	16D\JJ	.	.
=117	=117	=117	=117
8G/]	8E-\N]	8g\L] 8b-] 8gg]	.
8r	8ryy	8gg\J) 8eee- 8ggg	.
4r	4ryy	4.gg\ 4.eee- 4.ggg	[
[4GGG^>/ [4GG	4ryy	.	.
.	.	8dd\ 8bbn 8ddd	.
*v	*v	*	*
!!LO:LB:g=original	!	!
=118	=118	=118
8GGG/L] 8GG]	(4ff\ 4ddd 4fff	.
8BBBn/ 8BBn	.	.
8CC/ 8C	4.ee-\) 4.ccc 4.eee-	.
8DD/ 8D	.	.
8EE-/ 8E-	.	.
8FF/J 8F	8dd\ 8bb-X 8ddd	.
=119	=119	=119
8GG-X/L 8G-X	(8dd\L 8bb- 8ddd	.
(<16GG-/L 16G-	8cc\J 8aa 8ccc	.
16FF/JJ 16F	.	.
8GG-\L) 8G-	4.ee-\) 4.ccc 4.eee-	.
16G-\L 16B- 16e-	.	.
16G-\JJ 16B- 16e-	.	.
8G-\L 8B- 8e-	.	.
8G-\J 8B- 8e-	8b-\ 8bb-	.
=120	=120	=120
8F\L 8f	(4dd\ 4bb- 4ddd	.
16F\L 16f	.	.
16F\JJ 16f	.	.
8F\L 8f	4cc\) 4aa 4ccc	.
8F\J 8f	.	.
4F\ 4f	8r	.
*	*tuplet	*
.	(40ff\LLL	.
.	40gg\	.
.	40aa\	.
.	40bb-\	.
.	40ccc\JJJ)	.
=121	=121	=121
*^	*	*
8BBB-\L 8BB-	2ryy	8.dd\L 8.bb- 8.ddd	.
16F\L 16B- 16d	.	.	.
16F\JJ 16B- 16d	.	16dd\Jk 16bb- 16ddd	.
8A\L 8c 8f	.	[4ff\ [4ccc [4fff	.
8A\ 8c 8f	.	.	.
8G\ 8B-	8f/L	16ff\LL] 16ccc] 16fff]	.
.	.	16ee-\ 16eee-	.
8G\J 8B-	8e-/J	16dd\ 16ddd	.
.	.	16ee-\JJ 16eee-	.
*v	*v	*	*
!!LO:LB:g=original	!	!
=122	=122	=122
8BBB-\L 8BB-	8.dd\L 8.bb- 8.ddd	.
16F\L 16B- 16d	.	.
16F\JJ 16B- 16d	16dd\Jk 16bb- 16ddd	.
8F\L 8B- 8d	4dd\ 4bb- 4ddd	.
8F\ 8B- 8d	.	.
8F#X\ 8B- 8d	([4dd\ [4bb- [4ddd	.
8F#\J 8B- 8d	.	.
=123	=123	=123
4G\ 4B- 4d	8dd\L] 8bb-] 8ddd]	.
.	8cc\J 8aa 8ccc	.
4r	8ee-\ 8ccc 8eee-	.
.	4dd\) 4bb- 4ddd	.
(4DD^>/ 4D	.	.
.	8f#X\ 8a 8ff#X	.
=124	=124	=124
8EE-/L) 8E-	(4a\ 4cc 4aa	.
(16EE-/L 16E-	.	.
16DD/JJ 16D	.	.
8EE-/L) 8E-	8g\L) 8b- 8gg	.
8E-/J 8G 8B-	[8gg\J [8ggg	.
8BBBn/L 8BBn	16gg\LL] 16ggg]	.
.	16ff\ 16fff	.
8F/J 8A-X 8d	16ee-\ 16eee-	.
.	16dd\JJ 16ddd	.
=125	=125	=125
8CC/ 8C	8ff\L 8fff	.
4E-\ 4G 4c	16ee-\L 16eee-	.
.	16dd\JJ 16ddd	.
.	8cc\ 8ccc	.
8DD/L 8D	4g\ 4gg	.
8CC/ 8C	.	.
8BBBn/J 8BBn	16dd\LL 16ddd	.
.	16gg\JJ 16ggg	.
!!LO:LB:g=original	!	!
=126	=126	=126
8CC/ 8C	8ff\L 8fff	.
4E-\ 4G 4c	8ee-\J 8eee-	.
*	*8va	*
.	4.aa\ 4.ccc 4.eee- 4.aaa	.
8CC/L 8C	.	.
8DD/ 8D	.	.
8EE-/J 8E-	8gg\ 8bb- 8eee- 8ggg	.
=127	=127	=127
8FF/ 8F	8ff\L 8bb- 8ddd 8fff	.
*	*X8va	*
8r	([<8f^<\J	.
([4F\ 4B- [4e-	16f/LL]	.
.	16g/	.
.	16a/	.
.	16b-/JJ	.
8F\L]) 8A 8e-]	16cc\LL	.
.	16dd\	.
8F\J 8A 8e-	16ee-\	.
.	16a\JJ	.
=128	=128	=128
([4B-\ 4e-	(4f/) 4a 4cc	.
8B-\L]) 8d	16f\LL) 16b-	<
.	16f\ 16ff	.
8EE-\J 8E-	16g\ 16gg	.
.	16a\JJ 16aa	.
8DD/L 8D	16b-\LL 16bb-	.
.	16a\ 16aa	.
8CC/J 8C	16b-\ 16bb-	.
.	16cc\JJ 16ccc	[[
=129	=129	=129
4.BBB-/ 4.BB-	8.dd\L 8.bb- 8.ddd	ff
.	16dd\Jk 16bb- 16ddd	.
.	4dd\ 4bb- 4ddd	.
8AAA/ 8AA	.	.
4GGG/ 4GG	16ff\LL 16bb- 16fff	.
.	16ee-\ 16eee-	.
.	16dd\ 16ddd	.
.	16ee-\JJ 16eee-	.
!!LO:LB:g=original	!	!
=130	=130	=130
2FFF#X/ 2FF#X	8.dd\L 8.bb- 8.ddd	.
.	16dd\Jk 16bb- 16ddd	.
.	4dd\ 4bb- 4ddd	.
[4FF#/ [4F#X	16ff\LL 16bb- 16fff	.
.	16ee-\ 16eee-	.
.	16dd\ 16ddd	.
.	16ee-\JJ 16eee-	.
=131	=131	=131
2FF#/] 2F#]	8.dd\L 8.bb- 8.ddd	.
.	16dd\Jk 16bb- 16ddd	.
.	[4dd\ [4bb- [4ddd	.
4EE-/ 4E-	16dd\LL] 16bb-] 16ddd]	.
.	16cc\ 16ccc	.
.	16b-\ 16bb-	.
.	16cc\JJ 16ccc	.
=132	=132	=132
8.BBB-/L 8.BB-	8.dd\L 8.ff 8.bb- 8.ddd	.
16BBB-/Jk 16BB-	16dd\Jk 16ff 16bb- 16ddd	.
[4BBB-/ [4BB-	[4dd\ [4ff [4bb- [4ddd	.
8.BBB-/L] 8.BB-]	8.dd\L] 8.ff] 8.bb-] 8.ddd]	.
16BBB-/Jk 16BB-	16dd\Jk 16ff 16bb- 16ddd	.
=133	=133	=133
2BBB-/ 2BB-	2dd\ 2ff 2bb- 2ddd	.
4BBB-/ 4BB-	4dd\ 4ff 4bb- 4ddd	.
=134	=134	=134
2.BBB-;/ 2.BB-	2.dd;\ 2.ff 2.bb- 2.ddd	.
==	==	==
*-	*-	*-
!!!system-decoration: {(s1,s2)}
!!!RDF**kern: N = linked
!!!RDF**kern: > = above
!!!RDF**kern: < = below
!!!ENC: Anastazja Marusiak
!!!END: 2022-03-25
!!!ENC: Natalia Wrzos
!!!END: 2022-03-27
